X:1
T:F# minor                    Alexander Gillet, 1779
T:Isaac Watts, 1719 (Psalm 89, Last Part)                 88. 88. 88.
T:Farmington
T:Transcribed from Law's Select Harmony, 1779.
%%score [ 1 2 3 4 ]
L:1/8
Q:1/4=130
M:4/4
K:A
V:1 treble nm="Tr." snm="Tr."
V:2 treble nm="C." snm="C."
V:3 treble-8 nm="T." snm="T."
V:4 bass nm="B." snm="B."
V:1
 c8 | c2 c2 e4 | f4 c2 B2 | A8 | c4 c2 c2 | e8 | c4 A2 A2 | G8 | z4 F4 | c2 c2 B4- | B2 B2 A2 A2 | %11
 c8- | c4 z4 |: z8 | z8 | z8 | %16
"^1. Who                   can  se – cure  his    vi        –        tal   breath,                          Who   can  secure  his  vital  breath\n2. Let                       all   be – low  and   all ______   a  – bove,                              Let      all   below  and  all  a–bove" c8 | %17
 e2 e2 e2 c2 | (A3 G F2) F2 | c8 | z4 c4 | A2 A2 e2 e2 | f2 f2 c4 | c4 c2 c2 | d4 c4 | (e4 f2) e2 | %26
 e8 | f4 c2 c2 | A4 A4 | (F3 G A2) B2 | c4 A4 | c2 c2 (e4 | f4) e4 | c6 c2 | c8 :| %35
V:2
"^1. Think, mighty God, on  feeble man;  How few his hours! how short his span! Short from the cra  –  dle  to the grave.\n2.  For       ev– er  bles–sed  be the Lord,  Who gives his saints a long reward            For  all  their toil,  reproach, and pain:" F8 | %1
 F2 F2 G4 | A4 A2 G2 | F8 | F4 F2 F2 | A8 | A4 A2 F2 | G8 | z4 F4 | F2 F2 B4- | B2 A2 A2 A2 | G8- | %12
 G4 z4 |: z8 | z8 | %15
"^1. Who                  can  secure   his    vi         –       tal     breath                              Who   can  se – cure  his  vi     –     tal   breath \n2.  Let                     all   below   and   all _______ a  –   bove                                Let      all    be – low  and  all ____ a  –  bove" C8 | %16
 E2 E2 E2 C2 | (A3 G A2) ^E2 | F8 | z4 F4 | C2 C2 E2 E2 | (A4 G2) G2 | F8 | %23
"^1. Against the bold de–mands        of  death,  With skill to  fly, or  power            to  save?  With skill  to  fly, _____  or    power   to  save?\n2. Join to proclaim thy won  –  drous  love,    And each repeat their  loud          A – men, And each re–peat _____ their  loud   A–men." F4 E2 C2 | %24
 F4 A4 | (G4 F2) G2 | C8 | C4 F2 G2 | A4 F4 | F6 ^E2 | ^E4 F4 | c2 c2 A4- | A4 A4 | ^E6 E2 | F8 :| %35
V:3
 F8 | A2 A2 c4- | c2 f2 e2 d2 | c8 | A4 F2 F2 | c8 | e4 A2 A2 | c8 | z4 d4 | c2 A2 (e3 f | %10
 e2) d2 c2 A2 | G8- | G4 z4 |: z8 | %14
"^1. Who              can  secure  his   vi        –      tal    breath                                   Who     can  secure  his  vi       –       tal    breath _____________\n2.  Let                 all    below  and  all ______ a  –  bove                                      Let       all   below  and  all ______ a  –  bove  _____________" c8 | %15
 c2 e2 f2 c2 | (A3 G A2) B2 | c8 | z4 d4 | c2 c2 A2 A2 | (e3 f e2) d2 | c8- | c8 | f4 e2 e2 | %24
 f4 f4 | (c3 d c2) B2 | A8 | F4 A2 G2 | F4 c4 | (A3 B c2) d2 | c6 c2 | f2 f2 c4- | c4 A4 | G6 F2 | %34
 F8 :| %35
V:4
 F,8 | F,2 F,2 C,4 | F,4 A,2 E,2 | F,8 | F,4 A,2 A,2 | A,8 | A,4 F,2 F,2 | C,8- | C,4 F,4 | %9
 A,2 A,2 E,4- | E,2 F,2 F,2 F,2 | C,8- | C,4 z4 |:"^Who\nLet" F,8 | %14
"^1. can secure his   vi      –      tal    breath                                   Who _____________   can      se    –   cure         his         vi   –    tal        breath   \n2.  all  below and  all _____  a  –  bove                                      Let ______________   all        be   –    low        and         all          a    –    bove" F,2 C,2 C,2 F,2 | %15
 (A,3 G, F,2) G,2 | C,8 | z4 (C,4 | F,8) | F,4 F,4 | A,4 E,4 | F,4 C,4 | F,8 | F,4 A,2 C2 | %24
 B,4 A,4 | (C,4 F,2) G,2 | A,8 | A,4 F,2 C,2 | F,4 F,4 | F,6 G,2 | C,4 F,4 | F,2 F,2 (A,3 G, | %32
 F,4) C4 | C,6 C,2 | F,8 :| %35

